assets/coolify/mono.svg

<svg viewBox="0 0 24 24" xmlns="http://www.w3.org/2000/svg"><path d="m4.364 4.364v-4.364h17.454v4.364zm0 13.09h-4.364v-13.089h4.364zm0 0h17.454v4.364h-17.454zm2.181-10.908v-1.7h15.755v-2.664h1.7v4.363zm0 0v10.4h-1.7v-10.4zm-2.663 11.39v1.7h-1.7v-1.7zm20.118 6.064h-17.455v-1.7h15.755v-2.664h1.7z"/></svg>

<svg xmlns="http://www.w3.org/2000/svg" viewBox="0 0 24 24"><path d="M4.364 4.364V0h17.454v4.364zm0 13.09H0V4.365h4.364zm0 0h17.454v4.364H4.364zM6.545 6.546v-1.7H22.3V2.182H24v4.363zm0 0v10.4h-1.7v-10.4zm-2.663 11.39v1.7h-1.7v-1.7zM24 24H6.545v-1.7H22.3v-2.664H24z"/></svg>
